!!!!SEGMENT: pl-cz--iii-594--004_rzepko-adolf--missa-sanctus.krn
!!!cenid: 18xx:1042
!!!COM: Rzepko, Adolf
!!!COM-rismID: pe30020315
!!!CDT: 1825-1892
!!!CNT: Polish
!!!OPR: Missa
!!!OTL: Sanctus
!!!OMV: 004
!!!PDT:
!!!AGN: Sacred; Mass
!!!SMS-siglum: PL-CZ
!!!SMS-shelfmark: III-594
!!!SMS-shelfwork: 001-004 M
!!!SMS-variant:
!!!SMS-altvar:
!!!NIFC-rismSourceID: 300001136
!!!NIFC-islandoraID:
!!!URL-pdf-islandora:
!!!URL-scan:
!!!ONB-nifc: UWAGA: części Mszy: Kyrie, Gloria, Credo, Sanctus, Benedictus, Agnus
!!!OMD: Andante
!!!AIN: 5 empty 1 organ 1 soprn 2 violn
!!!key: C
**kern	**fba	**dynam	**kern	**dynam	**kern	**dynam	**kern	**dynam	**kern	**text	**dynam	**kern	**dynam	**kern	**dynam	**kern	**dynam	**kern	**dynam
*part9	*part9	*part9	*part8	*part8	*part7	*part7	*part6	*part6	*part5	*part5	*part5	*part4	*part4	*part3	*part3	*part2	*part2	*part1	*part1
*staff9	*	*	*staff8	*	*staff7	*	*staff6	*	*staff5	*staff5	*	*staff4	*	*staff3	*	*staff2	*	*staff1	*
*Iorgan	*	*	*Iempty	*	*Ivioln	*	*Ivioln	*	*Isoprn	*	*	*Iempty	*	*Iempty	*	*Iempty	*	*Iempty	*
*I"Organo	*	*	*I"Violino in F	*	*I"Violino 2do	*	*I"Violino 1o	*	*I"Sopran.	*	*	*I"Clarino II in C.	*	*I"Clarino 1mo in C	*	*I"Clarinetto in C.	*	*I"Flauto No 2	*
*I'Org.	*	*	*I'Vln. in F	*	*I'Vn II	*	*I'Vn I	*	*I'S.	*	*	*I'Clno. II in C.	*	*I'Clno. I in C	*	*I'Cl. in C	*	*I'Fl.	*
*ICklav	*	*	*ICstr	*	*ICstr	*	*ICstr	*	*ICvox	*	*	*ICbras	*	*ICbras	*	*ICww	*	*ICww	*
*clefF4	*	*	*clefG2	*	*clefG2	*	*clefG2	*	*clefC1	*	*	*clefG2	*	*clefG2	*	*clefG2	*	*clefG2	*
*	*	*	*ITrd4c7	*	*	*	*	*	*	*	*	*	*	*	*	*	*	*	*
*k[]	*	*	*k[]	*	*k[]	*	*k[]	*	*k[]	*	*	*k[]	*	*k[]	*	*k[]	*	*k[]	*
*	*	*	*C:	*	*	*	*	*	*	*	*	*	*	*	*	*	*	*	*
*M4/4	*	*	*M4/4	*	*M4/4	*	*M4/4	*	*M4/4	*	*	*M4/4	*	*M4/4	*	*M4/4	*	*M4/4	*
*met(c)	*	*	*met(c)	*	*met(c)	*	*met(c)	*	*met(c)	*	*	*met(c)	*	*met(c)	*	*met(c)	*	*met(c)	*
=1	=1	=1	=1	=1	=1	=1	=1	=1	=1	=1	=1	=1	=1	=1	=1	=1	=1	=1	=1
*	*	*	*tremolo	*	*tremolo	*	*tremolo	*	*	*	*	*	*	*	*	*	*	*	*
!	!	!	!	!LO:DY:b:rj	!LO:TX:a:t=And(an)te	!LO:DY:b:rj	!LO:TX:a:t=And(an)te	!LO:DY:b:rj	!LO:TX:a:t=And(an)te	!	!	!	!	!	!	!LO:TX:a:t=1.	!	!LO:TX:a:B:t=And(an)te	!
!	!	!	!	!LO:HP:b	!	!LO:HP:b	!	!	!	!	!	!LO:TX:a:t=And(an)te	!LO:DY:b:rj	!LO:TX:a:t=And(an)te	!LO:HP:a	!LO:TX:a:t=And(an)te	!	!	!
[1C/	5 3	.	32G/LLL	p <	32c/LLL	p<	32e/LLL	p <	1r	.	.	[1c/	p	[>1e/	p <	1r	.	1r	.
.	.	.	32G/	.	32c/	.	32e/	.	.	.	.	.	.	.	.	.	.	.	.
.	.	.	32G/	.	32c/	.	32e/	.	.	.	.	.	.	.	.	.	.	.	.
.	.	.	32G/	.	32c/	.	32e/	.	.	.	.	.	.	.	.	.	.	.	.
.	.	.	32G/	.	32c/	.	32e/	.	.	.	.	.	.	.	.	.	.	.	.
.	.	.	32G/	.	32c/	.	32e/	.	.	.	.	.	.	.	.	.	.	.	.
.	.	.	32G/	.	32c/	.	32e/	.	.	.	.	.	.	.	.	.	.	.	.
.	.	.	32G/	.	32c/	.	32e/	.	.	.	.	.	.	.	.	.	.	.	.
.	.	.	32G/	.	32c/	.	32e/	.	.	.	.	.	.	.	.	.	.	.	.
.	.	.	32G/	.	32c/	.	32e/	.	.	.	.	.	.	.	.	.	.	.	.
.	.	.	32G/	.	32c/	.	32e/	.	.	.	.	.	.	.	.	.	.	.	.
.	.	.	32G/	.	32c/	.	32e/	.	.	.	.	.	.	.	.	.	.	.	.
.	.	.	32G/	.	32c/	.	32e/	.	.	.	.	.	.	.	.	.	.	.	.
.	.	.	32G/	.	32c/	.	32e/	.	.	.	.	.	.	.	.	.	.	.	.
.	.	.	32G/	.	32c/	.	32e/	.	.	.	.	.	.	.	.	.	.	.	.
.	.	.	32G/	.	32c/	.	32e/	.	.	.	.	.	.	.	.	.	.	.	.
.	.	.	32G/	.	32c/	.	32e/	.	.	.	.	.	.	.	.	.	.	.	.
.	.	.	32G/	.	32c/	.	32e/	.	.	.	.	.	.	.	.	.	.	.	.
.	.	.	32G/	.	32c/	.	32e/	.	.	.	.	.	.	.	.	.	.	.	.
.	.	.	32G/	.	32c/	.	32e/	.	.	.	.	.	.	.	.	.	.	.	.
.	.	.	32G/	.	32c/	.	32e/	.	.	.	.	.	.	.	.	.	.	.	.
.	.	.	32G/	.	32c/	.	32e/	.	.	.	.	.	.	.	.	.	.	.	.
.	.	.	32G/	.	32c/	.	32e/	.	.	.	.	.	.	.	.	.	.	.	.
.	.	.	32G/	.	32c/	.	32e/	.	.	.	.	.	.	.	.	.	.	.	.
.	.	.	32G/	.	32c/	.	32e/	.	.	.	.	.	.	.	.	.	.	.	.
.	.	.	32G/	.	32c/	.	32e/	.	.	.	.	.	.	.	.	.	.	.	.
.	.	.	32G/	.	32c/	.	32e/	.	.	.	.	.	.	.	.	.	.	.	.
.	.	.	32G/	.	32c/	.	32e/	.	.	.	.	.	.	.	.	.	.	.	.
.	_ _	.	32G/	.	32c/	.	32e/	.	.	.	.	.	.	.	.	.	.	.	.
.	.	.	32G/	.	32c/	.	32e/	.	.	.	.	.	.	.	.	.	.	.	.
.	.	.	32G/	.	32c/	.	32e/	.	.	.	.	.	.	.	.	.	.	.	.
.	.	.	[32G/JJJ	[	32c/JJJ	[	32e/JJJ	[	.	.	.	.	.	.	[	.	.	.	.
*	*	*	*Xtremolo	*	*	*	*Xtremolo	*	*	*	*	*	*	*	*	*	*	*	*
!	!	!	!	!	!LO:LB:g=original	!	!	!	!	!	!	!	!	!	!	!	!	!	!
=2	=2	=2	=2	=2	=2	=2	=2	=2	=2	=2	=2	=2	=2	=2	=2	=2	=2	=2	=2
!LO:TX:t=P::problem=caudy wszystkich nut po prawej&colon; global	!	!	!	!	!	!	!	!	!LO:TX:t=P::problem=caudy wszystkich nut po prawej&colon; global	!	!	!	!	!	!	!	!	!	!
!	!	!	!	!LO:DY:a:rj	!	!LO:DY:b:rj	!	!LO:DY:a:rj	!LO:TX:a:t=1	!	!LO:DY:a:rj	!	!	!	!	!	!	!LO:TX:a:t=1	!LO:DY:b:rj
4C/]	.	.	4G/]	f	4c/	f	4e/	f	4r	.	f	4c/]	.	4e/]	.	4r	.	4r	f
!	!	!	!	!LO:DY:a:rj	!	!	!	!LO:HP:b	!	!	!	!	!	!	!	!LO:TX:t=P::problem=caudy drobnych nut nieregularnie - prawa, lewa, środek&colon; global	!LO:DY:a:rj	!LO:TX:t=P::problem=caudy drobnych nut nieregularnie - prawa, lewa, środek&colon; global	!
4r	x	.	4e/	>	4ee\	.	(4eee\	>	(4ee\	San-	.	4r	.	4r	.	4ee\	f	4eee\	>
!	!	!	!	!	!	!LO:DY:a:rj	!	!	!	!	!	!	!	!	!	!	!LO:HP:a:rj	!	!
2r	.	.	(8B/L	.	8b\L	>	8bb\L	.	8b\L	.	.	2r	.	2r	.	(8b\L	>	8bb\L	.
.	.	.	8c/	.	8cc\	.	8ccc\	.	8cc\J)	.	.	.	.	.	.	8cc\	.	8ccc\	.
!	!	!	!	!	!	!	!	!	!	!	!LO:DY:a:rj	!	!	!	!	!	!	!	!
.	.	.	8E/	.	8e\	.	8ee\	.	(8e/L	-ctus	>	.	.	.	.	8e\	]	8ee\	.
.	.	.	8A/J)	.	8a\J	.	8aa\J)	.	8a/J)	.	.	.	.	.	.	8a\J)	.	8aa\J	]]
=3	=3	=3	=3	=3	=3	=3	=3	=3	=3	=3	=3	=3	=3	=3	=3	=3	=3	=3	=3
*	*	*	*	*	*	*	*2\right	*	*	*	*	*	*	*	*	*	*	*2\right	*
!	!	!	!	!	!	!	!	!	!	!	!	!	!LO:DY:b:rj	!	!	!	!	!	!
[1BB/	6 5 3	.	[1d/	.	2.g/	.	2.gg\	.	(2.g/	Sanc-	.	1G/	p	1g/	p	2.g/	.	2.gg\	.
!	!	!	!	!	!	!	!LO:TX:t=P::problem=caudy ćwierćnut nieregularnie - prawa, lewa, środek&colon; global	!	!	!	!	!	!	!	!	!	!	!	!
.	_ _ _	.	.	.	4f#X/	.	4ff#X\	.	4f#X/)	.	]]	.	.	.	.	4f#X/	.	4ff#X\	.
=4	=4	=4	=4	=4	=4	=4	=4	=4	=4	=4	=4	=4	=4	=4	=4	=4	=4	=4	=4
4BB/]	.	.	2d/]	.	2fn/	.	2ffn\	.	2fn/	-tus	.	2G/	.	2g/	.	2fn/	.	2ffn\	.
4r	x	.	.	]	.	.	.	.	.	.	.	.	.	.	.	.	.	.	.
2r	.	.	2r	.	2r	]	2r	]	2r	.	.	2r	.	2r	.	2r	.	2r	.
=5	=5	=5	=5	=5	=5	=5	=5	=5	=5	=5	=5	=5	=5	=5	=5	=5	=5	=5	=5
*	*	*	*tremolo	*	*tremolo	*	*tremolo	*	*	*	*	*	*	*	*	*	*	*	*
!	!	!	!	!LO:DY:b:rj	!	!LO:HP:b	!	!LO:DY:b:rj	!LO:TX:a:t=1	!	!	!	!	!	!	!LO:TX:a:t=1	!	!	!
!	!	!	!	!LO:HP:b	!	!	!	!	!	!	!	!	!LO:DY:b:rj	!	!	!	!	!LO:TX:a:t=1	!
[1BB/	_ _ _	.	32d/LLL	p <	32f/ 32G/LLL	p <	32f/ 32G/LLL	p	1r	.	.	[>1G/	p	[>1g/	.	1r	.	1r	.
.	.	.	32d/	.	32f/ 32G/	.	32f/ 32G/	<	.	.	.	.	.	.	.	.	.	.	.
.	.	.	32d/	.	32f/ 32G/	.	32f/ 32G/	.	.	.	.	.	.	.	.	.	.	.	.
.	.	.	32d/	.	32f/ 32G/	.	32f/ 32G/	.	.	.	.	.	.	.	.	.	.	.	.
.	.	.	32d/	.	32f/ 32G/	.	32f/ 32G/	.	.	.	.	.	.	.	.	.	.	.	.
.	.	.	32d/	.	32f/ 32G/	.	32f/ 32G/	.	.	.	.	.	.	.	.	.	.	.	.
.	.	.	32d/	.	32f/ 32G/	.	32f/ 32G/	.	.	.	.	.	.	.	.	.	.	.	.
.	.	.	32d/	.	32f/ 32G/	.	32f/ 32G/	.	.	.	.	.	.	.	.	.	.	.	.
.	.	.	32d/	.	32f/ 32G/	.	32f/ 32G/	.	.	.	.	.	.	.	.	.	.	.	.
.	.	.	32d/	.	32f/ 32G/	.	32f/ 32G/	.	.	.	.	.	.	.	.	.	.	.	.
.	.	.	32d/	.	32f/ 32G/	.	32f/ 32G/	.	.	.	.	.	.	.	.	.	.	.	.
.	.	.	32d/	.	32f/ 32G/	.	32f/ 32G/	.	.	.	.	.	.	.	.	.	.	.	.
.	.	.	32d/	.	32f/ 32G/	.	32f/ 32G/	.	.	.	.	.	.	.	.	.	.	.	.
.	.	.	32d/	.	32f/ 32G/	.	32f/ 32G/	.	.	.	.	.	.	.	.	.	.	.	.
.	.	.	32d/	.	32f/ 32G/	.	32f/ 32G/	.	.	.	.	.	.	.	.	.	.	.	.
.	.	.	32d/	.	32f/ 32G/	.	32f/ 32G/	.	.	.	.	.	.	.	.	.	.	.	.
.	.	.	32d/	.	32f/ 32G/	.	32f/ 32G/	.	.	.	.	.	.	.	.	.	.	.	.
.	.	.	32d/	.	32f/ 32G/	.	32f/ 32G/	.	.	.	.	.	.	.	.	.	.	.	.
.	.	.	32d/	.	32f/ 32G/	.	32f/ 32G/	.	.	.	.	.	.	.	.	.	.	.	.
.	.	.	32d/	.	32f/ 32G/	.	32f/ 32G/	.	.	.	.	.	.	.	.	.	.	.	.
.	.	.	32d/	.	32f/ 32G/	.	32f/ 32G/	.	.	.	.	.	.	.	.	.	.	.	.
.	.	.	32d/	.	32f/ 32G/	.	32f/ 32G/	.	.	.	.	.	.	.	.	.	.	.	.
.	.	.	32d/	.	32f/ 32G/	.	32f/ 32G/	.	.	.	.	.	.	.	.	.	.	.	.
.	.	.	32d/	.	32f/ 32G/	.	32f/ 32G/	.	.	.	.	.	.	.	.	.	.	.	.
.	.	.	32d/	.	32f/ 32G/	.	32f/ 32G/	.	.	.	.	.	.	.	.	.	.	.	.
.	.	.	32d/	.	32f/ 32G/	.	32f/ 32G/	.	.	.	.	.	.	.	.	.	.	.	.
.	.	.	32d/	.	32f/ 32G/	.	32f/ 32G/	.	.	.	.	.	.	.	.	.	.	.	.
.	.	.	32d/	.	32f/ 32G/	.	32f/ 32G/	.	.	.	.	.	.	.	.	.	.	.	.
.	.	.	32d/	.	32f/ 32G/	.	32f/ 32G/	.	.	.	.	.	.	.	.	.	.	.	.
.	.	.	32d/	.	32f/ 32G/	.	32f/ 32G/	.	.	.	.	.	.	.	.	.	.	.	.
.	.	.	32d/	.	32f/ 32G/	.	32f/ 32G/	.	.	.	.	.	.	.	.	.	.	.	.
.	.	.	[32d/JJJ	[	32f/ 32G/JJJ	[	32f/ 32G/JJJ	[	.	.	.	.	.	.	.	.	.	.	.
*	*	*	*Xtremolo	*	*Xtremolo	*	*Xtremolo	*	*	*	*	*	*	*	*	*	*	*	*
=6	=6	=6	=6	=6	=6	=6	=6	=6	=6	=6	=6	=6	=6	=6	=6	=6	=6	=6	=6
!	!	!	!	!LO:DY:b:rj	!	!LO:DY:b:rj	!	!LO:DY:a:rj	!	!	!LO:DY:a:rj	!	!	!	!	!	!	!	!LO:DY:b:rj
4BB/]	.	.	4d/]	f	4f/ 4G/	f	4f/ 4G/	f	4r	.	f	4G/]	.	4g/]	.	4r	f	4r	f
!	!	!	!	!LO:HP:b	!	!	!	!LO:HP:b	!	!	!LO:DY:a:rj	!	!	!	!	!	!	!	!
4r	x	.	4f/	>	4f/	>	(4ff\	>	(4ff\	Sanc-	>	4r	.	4r	.	(4ff\	>	(4fff\	.
2r	.	.	8c#X/L	.	8c#X/L	.	8cc#X\L	.	8cc#X\L	.	.	2r	.	2r	.	8cc#X\L	.	8ccc#X\L	.
.	.	.	8d/	.	8d/	.	8dd\	.	8dd\J)	.	.	.	.	.	.	8dd\	.	8ddd\	.
.	.	.	8B-/	.	8A#X/	.	8a#X\	.	(8a#X\L	.	.	.	.	.	.	8a#X\	]	8aa#X\	.
.	.	.	8BX/J	]	8B/J	]	8b\J)	.	8b\J)	.	.	.	.	.	.	8b\J)	.	8bb\J)	.
=7	=7	=7	=7	=7	=7	=7	=7	=7	=7	=7	=7	=7	=7	=7	=7	=7	=7	=7	=7
!	!	!	!	!	!	!	!	!	!	!	!	!	!	!LO:TX:a:t=1.	!	!	!	!	!
2r	.	.	4G/	.	4G/	.	4g/	.	4g\	-tus	.	2r	.	1r	.	4g/	.	4gg\	.
.	.	.	4r	.	4r	.	4r	.	4r	.	.	.	.	.	.	4r	.	4r	.
!	!	!	!	!	!	!	!	!	!	!	!	!	!LO:DY:b:rj	!	!	!	!	!	!
2BB/	5 3	.	2G/	.	2d/	.	2f/	]	2f/	Sanc-	]]	2G/	p	.	.	2f/	.	2r	.
=8	=8	=8	=8	=8	=8	=8	=8	=8	=8	=8	=8	=8	=8	=8	=8	=8	=8	=8	=8
!	!	!	!	!	!	!	!	!	!	!	!	!	!	!	!	!	!	!LO:TX:a:t=1	!
2C/	10 8	.	2G/	.	2c/	.	2e/	.	2e/	-tus	.	2c/	.	2e/	.	2e/	.	1r	.
2r	.	.	2r	.	2r	.	2r	.	2r	.	.	2r	.	2r	.	2r	.	.	.
=9	=9	=9	=9	=9	=9	=9	=9	=9	=9	=9	=9	=9	=9	=9	=9	=9	=9	=9	=9
*	*	*	*	*	*	*	*	*	*2\right	*	*	*	*	*	*	*	*	*	*
!	!	!	!	!LO:DY:b:rj	!	!LO:DY:b:rj	!	!LO:DY:b:rj	!	!	!LO:DY:a:rj	!	!LO:DY:b:rj	!	!LO:DY:b:rj	!	!	!	!LO:DY:b:rj
4r	.	.	1c/	f	4r	f	[1cc\	mf	2.cc\	Sanc-	f	1c/	f	1cc\	f	4r	f	1ccc\	f
!	!	!	!	!	!	!	!	!LO:HP:b	!	!	!	!	!	!	!	!	!	!	!
4C\	9	.	.	.	4e/	.	.	<	.	.	.	.	.	.	.	4e/	.	.	.
4D\	3	.	.	.	4f/	.	.	.	.	.	.	.	.	.	.	4f/	.	.	.
4E\	3	.	.	.	4g/	.	.	.	4cc\	-tus	.	.	.	.	.	4g/	.	.	.
=10	=10	=10	=10	=10	=10	=10	=10	=10	=10	=10	=10	=10	=10	=10	=10	=10	=10	=10	=10
*2\right	*	*	*	*	*	*	*	*	*	*	*	*	*	*	*	*	*	*	*
2F\	3	.	1c/	.	2a/	.	1cc\]	.	2cc\	Do-	.	1c/	.	1cc\	.	2a/	.	1ccc\	.
4F\	5 3	.	.	.	4a/	.	.	[	4cc\	-mi-	.	.	.	.	.	4a/	.	.	.
4F\	5 -3	.	.	.	4a-X/	.	.	.	4cc\	-nus	.	.	.	.	.	4a-X/	.	.	.
!	!	!	!	!	!	!	!	!	!	!	!	!	!	!	!	!	!	!LO:LB:g=original	!
=11	=11	=11	=11	=11	=11	=11	=11	=11	=11	=11	=11	=11	=11	=11	=11	=11	=11	=11	=11
*	*	*	*	*	*	*	*	*	*	*	*	*	*	*	*	*2\right	*	*	*
!	!	!	!	!	!	!	!	!LO:HP:b	!	!	!	!	!	!	!	!	!	!	!
2G\	6 4	.	2c/	.	2g/ 2G/	.	2cc/ 2e/	>	2.cc\	De-	.	2G/	.	2g/	.	2ee\	.	2ccc\	.
4G\	_ _	.	4c/	.	4g/ 4G/	.	4cc/ 4e/	.	.	.	.	4G/	.	4g/	.	4ee\	.	4ccc\	.
4G\	.	.	4c/	.	4g/ 4G/	.	4cc/ 4e/	.	4cc\	-us	.	4G/	.	4g/	.	4ee\	.	4ccc\	.
!	!	!	!	!	!	!	!LO:LB:g=original	!	!	!	!	!	!	!	!	!	!	!	!
=12	=12	=12	=12	=12	=12	=12	=12	=12	=12	=12	=12	=12	=12	=12	=12	=12	=12	=12	=12
4G\	#7 -6 4	.	4c/	.	4f#X/ 4G/	.	4cc/ 4e-X/	.	4cc\	De-	.	4G/	.	4g/	.	4ee-X\	.	4ccc\	.
*	*	*	*	*	*	*	*	*	*	*	*	*rep	*	*	*	*	*	*	*
4G\	_ _ _	.	4c/	.	4f#/ 4G/	.	4cc/ 4e-/	.	4cc\	-us	.	4G/yy	.	4g/	.	4ee-\	.	4ccc\	.
*	*	*	*	*	*	*	*	*	*	*	*	*Xrep	*	*	*	*	*	*	*
*	*	*	*	*	*	*	*	*	*	*	*	*rep	*	*	*	*	*	*	*
4G\	.	.	4c/	.	4f#/ 4G/	.	4cc/ 4e-/	.	4cc\	Sa-	.	4G/yy	.	4g/	.	4ee-\	.	4ccc\	.
*	*	*	*	*	*	*	*	*	*	*	*	*Xrep	*	*	*	*	*	*	*
*	*	*	*	*	*	*	*	*	*	*	*	*rep	*	*	*	*	*	*	*
4G\	.	.	4c/	.	4f#/ 4G/	.	4cc/ 4e-/	]	4cc\	-ba-	.	4G/yy	.	4g/	.	4ee-\	.	4ccc\	.
*	*	*	*	*	*	*	*	*	*	*	*	*Xrep	*	*	*	*	*	*	*
!	!	!	!	!	!	!	!	!	!	!	!	!LO:LB:g=original	!	!	!	!	!	!	!
=13	=13	=13	=13	=13	=13	=13	=13!|:	=13	=13	=13	=13	=13	=13	=13	=13	=13	=13	=13	=13
4G\	5 3	.	4g/ 4B/	.	4g/ 4G/	.	4b/ 4d/	.	4b\	-oth.	.	4G/	.	4g/	.	4dd\	.	4bb\	.
4r	.	.	8r	.	8r	.	8r	.	4r	.	.	8r	.	8r	.	4r	.	4r	.
.	.	.	32g/LLL 32G/	.	32g/LLL 32G/	.	32g/LLL 32G/	.	.	.	.	32G/LLL	.	32g/LLL	.	.	.	.	.
.	.	.	32g/ 32G/	.	32g/ 32G/	.	32g/ 32G/	.	.	.	.	32G/	.	32g/	.	.	.	.	.
.	.	.	32g/ 32G/	.	32g/ 32G/	.	32g/ 32G/	.	.	.	.	32G/	.	32g/	.	.	.	.	.
.	.	.	32g/JJJ 32G/	.	32g/JJJ 32G/	.	32g/JJJ 32G/	.	.	.	.	32G/JJJ	.	32g/JJJ	.	.	.	.	.
=-	=-	=-	=-	=-	=-	=-	=-:|!	=-	=-	=-	=-	=-	=-	=-	=-	=-	=-	=-	=-
2r	.	.	4g/ 4G/	.	4g/ 4G/	.	4b/yy 4d/yy	.	2r	.	.	4G/	.	4g/	.	2r	.	2r	.
.	.	.	8r	.	8r	.	8ryy	.	.	.	.	8r	.	8r	.	.	.	.	.
.	.	.	32g/LLL 32G/	.	32g/LLL 32G/	.	32g/yy 32G/yy	.	.	.	.	32G/LLL	.	32g/LLL	.	.	.	.	.
.	.	.	32g/ 32G/	.	32g/ 32G/	.	32g/yyLLL 32G/yy	.	.	.	.	32G/	.	32g/	.	.	.	.	.
.	.	.	32g/ 32G/	.	32g/ 32G/	.	32g/yy 32G/yy	.	.	.	.	32G/	.	32g/	.	.	.	.	.
.	.	.	32g/JJJ 32G/	.	32g/JJJ 32G/	.	32g/yyJJJ 32G/yy	.	.	.	.	32G/JJJ	.	32g/JJJ	.	.	.	.	.
!	!	!	!	!	!	!	!	!	!	!	!	!	!	!LO:LB:g=original	!	!LO:LB:g=original	!	!	!
=14	=14	=14	=14	=14	=14	=14	=14	=14	=14	=14	=14	=14	=14	=14	=14	=14	=14	=14	=14
2G\ 2GG\	8	.	2g/ 2G;</	.	2g/ 2G/	.	2g/ 2G;/	.	1r;	.	.	2G/	.	2g/	.	1r;	.	1r;	.
2r;	.	.	2r	.	2r	.	2r	.	.	.	.	2r;	.	2r;	.	.	.	.	.
!	!	!	!	!	!	!	!	!	!LO:LB:g=original	!	!	!	!	!	!	!	!	!	!
=15||	=15||	=15||	=15||	=15||	=15||	=15||	=15||	=15||	=15||	=15||	=15||	=15||	=15||	=15||	=15||	=15||	=15||	=15||	=15||
*	*	*	*clefG2	*	*	*	*	*	*	*	*	*	*	*	*	*	*	*	*
*	*	*	*k[]	*	*	*	*	*	*	*	*	*	*	*	*	*	*	*	*
*M3/4	*	*	*M3/4	*	*M3/4	*	*M3/4	*	*M3/4	*	*	*M3/4	*	*M3/4	*	*M3/4	*	*M3/4	*
!	!	!	!	!	!	!	!LO:TX:a:rj:t=Pleni	!	!	!	!	!	!	!	!	!	!	!	!
!	!	!	!	!	!LO:TX:a:i:t=pleni	!	!LO:TX:a:t=Allegro	!LO:DY:b:rj	!LO:TX:a:t=Allegro	!	!	!	!	!LO:TX:a:t=Allegretto	!	!	!	!	!
!	!	!	!	!	!LO:LB:g=original	!LO:DY:b:rj	!	!	!	!	!	!	!	!	!	!	!	!	!
!	!	!LO:DY:b:rj	!	!LO:DY:b:rj	!LO:TX:a:rj:i:t=Allegro	!	!	!	!	!	!	!	!	!	!	!	!	!	!
16qqGG/LL	.	f	16qqG/LL	ff	32qqG/LLL	ff	(<32qqG/LLL	ff	.	.	.	.	.	.	.	.	.	.	.
16qqAA/	.	.	16qqA/	.	32qqA/	.	32qqA/	.	.	.	.	.	.	.	.	.	.	.	.
!	!	!	!	!	!	!	!	!	!	!	!	!	!	!	!	!	!	!LO:TX:a:rj:B:t=Allegro	!
16qqBB/JJ	.	.	16qqB/JJ	.	32qqB/JJJ	.	32qqB/JJJ	.	.	.	.	.	.	.	.	.	.	.	.
!	!	!	!	!	!	!	!	!	!LO:TX:a:t=16	!	!	!	!LO:DY:b:rj	!	!	!LO:TX:a:t=8	!	!LO:TX:a:t=16	!
[2.C/	.	.	[2.c/	.	2.c/	.	2.c/)	.	0.r	.	.	2.c/	f	2c/	f	0.r	.	0.r	.
.	.	.	.	.	.	.	.	.	.	.	.	.	.	4r	.	.	.	.	.
=16	=16	=16	=16	=16	=16	=16	=16	=16	=16	=16	=16	=16	=16	=16	=16	=16	=16	=16	=16
!	!	!	!	!	!	!	!	!	!	!	!	!LO:TX:a:t=1.	!	!LO:TX:a:t=1	!	!	!	!	!
4C/]	.	.	4c/]	.	4c/	.	4c/	.	.	.	.	2.r	.	2.r	.	.	.	.	.
4D/	.	.	4d/	.	4d/	.	4d/	.	.	.	.	.	.	.	.	.	.	.	.
4GG/	.	.	4G/	.	4G/	.	4G/	.	.	.	.	.	.	.	.	.	.	.	.
=17:|!	=17	=17	=17	=17	=17:|!	=17	=17:|!	=17	=17	=17	=17	=17	=17	=17	=17	=17	=17	=17	=17
16qqyyGG/LL	.	.	16qqG/LLyy	.	(yy<32qqG/LLLyy	.	(yy<32qqG/LLLyy	.	.	.	.	.	.	.	.	.	.	.	.
16qqAA/yy	.	.	16qqA/yy	.	32qqA/yy	.	32qqA/yy	.	.	.	.	.	.	.	.	.	.	.	.
16qqBB/JJyy	.	.	16qqB/JJyy	.	32qqB/JJJyy	.	32qqB/JJJyy	.	.	.	.	.	.	.	.	.	.	.	.
[yy<2.C/yy	.	.	[yy2.c/yy	.	2.c/yy	.	2.c/)yy	.	.	.	.	2.c/	.	2c/	.	.	.	.	.
.	.	.	.	.	.	.	.	.	.	.	.	.	.	4r	.	.	.	.	.
=18	=18	=18	=18	=18	=18	=18	=18	=18	=18	=18	=18	=18	=18	=18	=18	=18	=18	=18	=18
!	!	!	!	!	!	!	!	!	!	!	!	!LO:TX:a:t=1	!	!LO:TX:a:t=1	!	!	!	!	!
4C/]yy	.	.	4c/]yy	.	4c/yy	.	4c/yy	.	.	.	.	2.r	.	2.r	.	.	.	.	.
4D/yy	.	.	4d/yy	.	4d/yy	.	4d/yy	.	.	.	.	.	.	.	.	.	.	.	.
4GG/yy	.	.	4G/yy	.	4G/yy	.	4G/yy	.	.	.	.	.	.	.	.	.	.	.	.
!LO:LB:g=original	!	!	!LO:LB:g=original	!	!	!	!	!	!	!	!	!	!	!	!	!	!	!	!
=19	=19	=19	=19	=19	=19	=19	=19	=19	=19	=19	=19	=19	=19	=19	=19	=19	=19	=19	=19
*	*	*	*tremolo	*	*tremolo	*	*tremolo	*	*	*	*	*	*	*	*	*	*	*	*
4C/	.	.	8c/L	.	8c/L	.	8c/L	.	0.r	.	.	4c/	.	4c/	.	0.r	.	0.r	.
.	.	.	8c/J	.	8c/J	.	8c/J	.	.	.	.	.	.	.	.	.	.	.	.
4BB/	.	.	8B/L	.	8B/L	.	8B/L	.	.	.	.	4r	.	4r	.	.	.	.	.
.	.	.	8B/J	.	8B/J	.	8B/J	.	.	.	.	.	.	.	.	.	.	.	.
4C/	.	.	8c/L	.	8c/L	.	8c/L	.	.	.	.	4r	.	4r	.	.	.	.	.
.	.	.	8c/J	.	8c/J	.	8c/J	.	.	.	.	.	.	.	.	.	.	.	.
=20	=20	=20	=20	=20	=20	=20	=20	=20	=20	=20	=20	=20	=20	=20	=20	=20	=20	=20	=20
!	!	!	!	!	!	!	!	!	!	!	!	!LO:TX:a:t=1	!	!	!	!	!	!	!
4D/	.	.	8d/L	.	8d/L	.	8d/L	.	.	.	.	2.r	.	2.r	.	.	.	.	.
.	.	.	8d/J	.	8d/J	.	8d/J	.	.	.	.	.	.	.	.	.	.	.	.
4C/	.	.	8c/L	.	8c/L	.	8c/L	.	.	.	.	.	.	.	.	.	.	.	.
.	.	.	8c/J	.	8c/J	.	8c/J	.	.	.	.	.	.	.	.	.	.	.	.
4BB/	.	.	8B/L	.	8B/L	.	8B/L	.	.	.	.	.	.	.	.	.	.	.	.
.	.	.	8B/J	.	8B/J	.	8B/J	.	.	.	.	.	.	.	.	.	.	.	.
=21	=21	=21	=21	=21	=21	=21	=21	=21	=21	=21	=21	=21	=21	=21	=21	=21	=21	=21	=21
4C/	.	.	8c/L	.	8c/L	.	8c/L	.	.	.	.	4c/	.	4c/	.	.	.	.	.
.	.	.	8c/J	.	8c/J	.	8c/J	.	.	.	.	.	.	.	.	.	.	.	.
4BB/	.	.	8B/L	.	8B/L	.	8B/L	.	.	.	.	4r	.	4r	.	.	.	.	.
.	.	.	8B/J	.	8B/J	.	8B/J	.	.	.	.	.	.	.	.	.	.	.	.
4D/	.	.	8d/L	.	8d/L	.	8d/L	.	.	.	.	4r	.	4r	.	.	.	.	.
.	.	.	8d/J	.	8d/J	.	8d/J	.	.	.	.	.	.	.	.	.	.	.	.
=22	=22	=22	=22	=22	=22	=22	=22	=22	=22	=22	=22	=22	=22	=22	=22	=22	=22	=22	=22
4C/	.	.	8c/L	.	8c/L	.	8c/L	.	.	.	.	4c/	.	4c/	.	.	.	.	.
.	.	.	8c/J	.	8c/J	.	8c/J	.	.	.	.	.	.	.	.	.	.	.	.
4E\	.	.	8e/L	.	8e/L	.	8e/L	.	.	.	.	4r	.	4r	.	.	.	.	.
.	.	.	8e/J	.	8e/J	.	8e/J	.	.	.	.	.	.	.	.	.	.	.	.
4F#X\	.	.	8f#X/L	.	8f#X/L	.	8f#X/L	.	.	.	.	4r	.	4r	.	.	.	.	.
.	.	.	8f#X/J	.	8f#X/J	.	8f#X/J	.	.	.	.	.	.	.	.	.	.	.	.
*	*	*	*Xtremolo	*	*Xtremolo	*	*Xtremolo	*	*	*	*	*	*	*	*	*	*	*	*
=23	=23	=23	=23	=23	=23	=23	=23!|:	=23	=23	=23	=23	=23	=23	=23	=23	=23	=23	=23	=23
.	.	.	.	.	.	.	32qqd/LLL	.	.	.	.	.	.	.	.	.	.	.	.
.	.	.	.	.	.	.	32qqe/	.	.	.	.	.	.	.	.	.	.	.	.
.	.	.	.	.	.	.	32qqf#X/JJJ	.	.	.	.	.	.	.	.	.	.	.	.
!	!	!	!	!	!	!	!	!	!	!	!	!	!	!LO:TX:a:t=1	!	!	!	!	!
2.G\	5 3	.	2.d/ 2.B/	.	2.g/ 2.G/	.	[2.g/	.	0.r	.	.	2.G/	.	2.g/	.	[2.g/	ff	0.r	.
=24	=24	=24	=24	=24	=24	=24	=24	=24	=24	=24	=24	=24	=24	=24	=24	=24	=24	=24	=24
!	!	!	!LO:TX:t=P::problem=kolejność nut we współbrzmieniu odwrotna&colon; a-g	!	!	!	!	!	!	!	!	!LO:TX:a:t=1	!	!	!	!	!	!	!
2.G\	#7 5 4	.	2.d/ 2.c/	.	2.f#X/ 2.A/	.	4g/]	.	.	.	.	2.r	.	2.r	.	4g/]	.	.	.
.	.	.	.	.	.	.	4a/	.	.	.	.	.	.	.	.	4a/	.	.	.
.	.	.	.	.	.	.	4d/	.	.	.	.	.	.	.	.	4d/	.	.	.
=25	=25	=25	=25	=25	=25	=25	=25:|!	=25	=25	=25	=25	=25	=25	=25	=25	=25	=25	=25	=25
.	.	.	.	.	.	.	32qqd/LLLyy	.	.	.	.	.	.	.	.	.	.	.	.
.	.	.	.	.	.	.	32qqe/yy	.	.	.	.	.	.	.	.	.	.	.	.
.	.	.	.	.	.	.	32qqf#X/JJJyy	.	.	.	.	.	.	.	.	.	.	.	.
2.G\	5 3	.	2.d/ 2.B/	.	2.g/ 2.G/	.	[yy<2.g/yy	.	.	.	.	2.G/	.	2.a/	.	[2.g/	.	.	.
=26	=26	=26	=26	=26	=26	=26	=26	=26	=26	=26	=26	=26	=26	=26	=26	=26	=26	=26	=26
!	!	!	!LO:TX:t=P::problem=kolejność nut we współbrzmieniu odwrotna&colon; a-g	!	!	!	!	!	!	!	!	!LO:TX:a:t=1.	!	!LO:TX:a:t=1	!	!	!	!	!
2.G\	#7 5 4	.	2.d/ 2.c/	.	2.f#X/ 2.A/	.	4g/]yy	.	.	.	.	2.r	.	2.r	.	4g/]	.	.	.
.	.	.	.	.	.	.	4a/yy	.	.	.	.	.	.	.	.	4a/	.	.	.
.	.	.	.	.	.	.	4d/yy	.	.	.	.	.	.	.	.	4d/	.	.	.
!	!	!	!	!	!	!	!	!	!	!	!	!LO:LB:g=original	!	!	!	!	!	!	!
=27	=27	=27	=27	=27	=27	=27	=27	=27	=27	=27	=27	=27	=27	=27	=27	=27	=27	=27	=27
*	*	*	*	*	*	*	*tremolo	*	*	*	*	*	*	*	*	*	*	*	*
2.G\	5 3	.	2.d/ 2.B/	.	2.g/ 2.G/	.	8g/L	.	0.r	.	.	4G/	.	4g/	.	4g/	.	0.r	.
.	.	.	.	.	.	.	8g/J	.	.	.	.	.	.	.	.	.	.	.	.
.	.	.	.	.	.	.	8f#X/L	.	.	.	.	4r	.	4r	.	4f#X/	.	.	.
.	.	.	.	.	.	.	8f#X/J	.	.	.	.	.	.	.	.	.	.	.	.
.	.	.	.	.	.	.	8g/L	.	.	.	.	4r	.	4r	.	4g/	.	.	.
.	.	.	.	.	.	.	8g/J	.	.	.	.	.	.	.	.	.	.	.	.
=28	=28	=28	=28	=28	=28	=28	=28	=28	=28	=28	=28	=28	=28	=28	=28	=28	=28	=28	=28
!	!	!	!LO:TX:t=P::problem=kolejność nut we współbrzmieniu odwrotna&colon; a-g	!	!	!	!	!	!	!	!	!LO:TX:a:t=1.	!	!LO:TX:a:t=1.	!	!	!	!	!
2.G\	#7 5 4	.	2.d/ 2.c/	.	2.f#X/ 2.A/	.	8a/L	.	.	.	.	2.r	.	2.r	.	4g/	.	.	.
.	.	.	.	.	.	.	8a/J	.	.	.	.	.	.	.	.	.	.	.	.
.	.	.	.	.	.	.	8g/L	.	.	.	.	.	.	.	.	4f/	.	.	.
.	.	.	.	.	.	.	8g/J	.	.	.	.	.	.	.	.	.	.	.	.
.	.	.	.	.	.	.	8f#X/L	.	.	.	.	.	.	.	.	4f#X/	.	.	.
.	.	.	.	.	.	.	8f#X/J	.	.	.	.	.	.	.	.	.	.	.	.
!	!	!	!	!	!	!	!LO:LB:g=original	!	!	!	!	!	!	!	!	!	!	!	!
=29	=29	=29	=29	=29	=29	=29	=29	=29	=29	=29	=29	=29	=29	=29	=29	=29	=29	=29	=29
2.G\	5 3	.	2.d/ 2.B/	.	2.g/ 2.G/	.	8g/L	.	.	.	.	4G/	.	4g/	.	4g/	.	.	.
.	.	.	.	.	.	.	8g/J	.	.	.	.	.	.	.	.	.	.	.	.
.	.	.	.	.	.	.	8f#X/L	.	.	.	.	4r	.	4r	.	4f#X/	.	.	.
.	.	.	.	.	.	.	8f#X/J	.	.	.	.	.	.	.	.	.	.	.	.
.	.	.	.	.	.	.	8a/L	.	.	.	.	4r	.	4r	.	4a/	.	.	.
.	.	.	.	.	.	.	8a/J	.	.	.	.	.	.	.	.	.	.	.	.
=30	=30	=30	=30	=30	=30	=30	=30	=30	=30	=30	=30	=30	=30	=30	=30	=30	=30	=30	=30
2.G\	7	.	2.d/ 2.B/	.	2.f/ 2.G/	.	8g/L	.	.	.	.	4G/	.	4g/	.	4g/	.	.	.
.	.	.	.	.	.	.	8g/J	.	.	.	.	.	.	.	.	.	.	.	.
.	.	.	.	.	.	.	8a/L	.	.	.	.	4r	.	4r	.	4a/	.	.	.
.	.	.	.	.	.	.	8a/J	.	.	.	.	.	.	.	.	.	.	.	.
.	.	.	.	.	.	.	8b/L	.	.	.	.	4r	.	4r	.	4b/	.	.	.
.	.	.	.	.	.	.	8b/J	.	.	.	.	.	.	.	.	.	.	.	.
*	*	*	*	*	*	*	*Xtremolo	*	*	*	*	*	*	*	*	*	*	*	*
=31	=31	=31	=31	=31	=31	=31	=31	=31	=31	=31	=31	=31	=31	=31	=31	=31	=31	=31	=31
!	!	!	!	!	!	!	!	!	!	!	!LO:DY:a:rj	!	!	!	!	!	!	!	!
4C/	5 3	.	4c/	.	4c/	.	4cc\	.	4cc\	ple-	f	4c/	.	4cc\	.	4cc\	.	4r	f
4E/	6	.	4c/	.	4g/	.	4ccc\	.	4cc\	-ni	.	4r	.	4r	.	4gg\	.	4ccc\	.
4C/	5 3	.	4B/	.	4g/	.	4bb\	.	4b\	sunt	.	4r	.	4r	.	4gg\	.	4bb\	.
=32	=32	=32	=32	=32	=32	=32	=32	=32	=32	=32	=32	=32	=32	=32	=32	=32	=32	=32	=32
!	!	!	!	!	!	!	!	!	!	!	!	!LO:TX:a:t=2	!	!LO:TX:a:t=2	!	!	!	!	!
2F\	5 3	.	4c/	.	4a/ 4f/	.	4aa\	.	4a\	cae-	.	1.r	.	1.r	.	4ff\	.	4aa\	.
.	.	.	4c/	.	4a/ 4f/	.	4aa\	.	4a\	-li	.	.	.	.	.	4ff\	.	4aa\	.
4C#X/	6 5	.	4g/ 4A/	.	4e/	.	4gg\	.	4g\	et	.	.	.	.	.	4ee\	.	4gg\	.
=33	=33	=33	=33	=33	=33	=33	=33	=33	=33	=33	=33	=33	=33	=33	=33	=33	=33	=33	=33
4D\	5 3	.	4d/	.	4f/ 4A/	.	4ff\	.	(4f\	ter-	.	.	.	.	.	4dd\	.	4ff\	.
4F\	6	.	4a/ 4A/	.	4dd/ 4d/	.	4ddd\	.	4dd\)	.	.	.	.	.	.	4aa\	.	4ddd\	.
4F#X\	6 5	.	4a/ 4A/	.	4cc/ 4d/	.	4ccc\	.	4cc\	-ra	.	.	.	.	.	4aa\	.	4ccc\	.
!	!	!	!	!	!	!	!	!	!	!	!	!	!	!LO:LB:g=original	!	!	!	!	!
=34	=34	=34	=34	=34	=34	=34	=34	=34	=34	=34	=34	=34	=34	=34	=34	=34	=34	=34	=34
4G\	5 3	.	4g/ 4B/	.	4b/ 4d/	.	4bb\	.	4b\	glo-	.	4G/	.	4g/	.	4gg\	.	4bb\	.
4D\	7 #3	.	4d/ 4c/	.	4f#X/ 4A/	.	4aa\	.	4a\	-ri-	.	4r	.	4r	.	4cc\	.	4aa\	.
4G\ 4GG\	5 3	.	4d/ 4B/	.	4g/ 4G/	.	4gg\	.	4g\	-a	.	4G/	.	4g/	.	4b\	.	4gg\	.
=35	=35	=35	=35	=35	=35	=35	=35	=35	=35	=35	=35	=35	=35	=35	=35	=35	=35	=35	=35
2E\	6 3	.	2c/	.	2.g/ 2.G/	.	4ccc\	.	4cc\	glo-	.	2.e/	.	2.e/	.	2gg\	.	4ccc\	.
.	_ _	.	.	.	.	.	4bb\	.	4b\	-ri-	.	.	.	.	.	.	.	4bb\	.
4E\	.	.	4c/	.	.	.	4ccc\	.	4cc\	-a	.	.	.	.	.	4gg\	.	4ccc\	.
=36	=36	=36	=36	=36	=36	=36	=36	=36	=36	=36	=36	=36	=36	=36	=36	=36	=36	=36	=36
!	!	!	!	!	!	!	!	!	!	!	!	!LO:TX:a:t=1	!	!LO:TX:a:t=1	!	!	!	!	!
2.F\	6	.	2.f/ 2.A/	.	2.a/ 2.d/	.	4ddd\	.	4dd\	glo-	.	2.r	.	2.r	.	2.aa\	.	4ddd\	.
.	.	.	.	.	.	.	4eee\	.	4ee\	-ri-	.	.	.	.	.	.	.	4eee\	.
.	.	.	.	.	.	.	4fff\	.	4ff\	-a	.	.	.	.	.	.	.	4fff\	.
=37	=37	=37	=37	=37	=37	=37	=37	=37	=37	=37	=37	=37	=37	=37	=37	=37	=37	=37	=37
!	!	!	!	!	!	!	!	!	!	!	!	!	!	!	!	!	!	!LO:TX:t=P:problem=po nucie kropka	!
2G\	6 4	.	2e/ 2c/	.	2g/ 2G/	.	2eee\	.	(2ee\	tu-	.	2G/	.	2g/	.	2gg\	.	2eee\	.
4G\	7	.	4d/ 4B/	.	4f/ 4G/	.	4ddd\	.	4dd\)	.	.	4G/	.	4g/	.	4ff\	.	4ddd\	.
=38	=38	=38	=38	=38	=38	=38	=38	=38	=38	=38	=38	=38	=38	=38	=38	=38	=38	=38	=38
2C/	5 3	.	2c/	.	2e/ 2G/	.	2ccc\	.	2cc\	-a	.	2c/	.	2g/	.	2ee\	.	2ccc\	.
!	!	!	!	!	!	!	!	!	!	!	!	!LO:TX:b:i:t=Benedictus Tacet \nAgnus Tacet	!	!LO:TX:b:i:t=Benedictus Tacet&colon;//&colon; Agnus Tacet&colon;/	!	!	!	!	!
4r	.	.	4r	.	4r	.	4r	.	4r	.	.	4r	.	4r	.	4r	.	4r	.
==	==	==	==	==	==	==	==	==	==	==	==	==	==	==	==	==	==	==	==
*-	*-	*-	*-	*-	*-	*-	*-	*-	*-	*-	*-	*-	*-	*-	*-	*-	*-	*-	*-
!!!system-decoration: [(s1,s2)][(s3,s4)]s5[(s6,s7,s8)]s9
!!!RDF**kern: > = above
!!!RDF**kern: < = below
!!!ENC: Mateusz Solarz
!!!END: 2020-10-08
!!!ENC: Leszek Kubiak
!!!END: 2022-02-04
!!!YEC: Copyright 2022 Narodowy Instytut Fryderyka Chopina (https://polishscores.org)
!!!YEM: Licence CC BY 4.0 (https://creativecommons.org/licenses/by/4.0)
